X: 1
T: Navvy on the Line
R: hornpipe
C: James Hill (c.1875)
B: K\"ohler's Violin Repository, Book One (1881, p. 48)
M: 4/4
L: 1/8
K: G
Bc | "G"dg fe "D7"dc BA | "G"GB DG B2 (3BAG |\
[1,3 "D7"FA DF A2 (3AGF | "G"GB DG B2 Bc :|\
[2,4 "D7"FG AB cd ef | "G"g2 G2 G2 :|
|: AG |\
     "D7"FA DF A2 (3AGF | "G"GB DG B2 (3BAG |\
[1,3 "D7"FA DF A2 (3AGF | "G"GD EF "D7"GA Bc :|\
[2,4 "D7"FG AB cd ef | "G"g2 G2 G2 :|
